X:1
T:- # -
%%score [ 1 2 3 4 ]
L:1/8
M:4/4
K:F
V:1 treble nm="Sopran" snm=" "
V:2 treble nm="Alt"
V:3 treble-8 nm="Tenor"
V:4 bass nm="Baß"
V:1
 z8 |"^Christobal de Morales" d8 | c4 d4 | B4"^VIII.  Sancta Maria" A4 |"^5" z2 d2 e2 g2- | %5
w: |Sanc-|ta Ma-|ri- a,|suc- cur- re|
 g2 f3 e d2- | d2 ^c2 d2"^1546" f2- | f2 e2 d2 f2- | fe d4 ^c2 |"^10" d8 | z2 G2 A2 c2- | %11
w: * mi- * *|* se- ris, suc-|* cur- re mi|* * * se-|ris,|suc- cur- re|
 c2 B3 A G2- | G2 F2 G2 B2- | B2 A2 G2 B2- |"^15" BA G4 F2 | GABG AB c2- | c2 B2 A4 | G4 z2 d2- | %18
w: * mi- * *|* se- ris, suc-|* cur- re mi|||* * se-|ris, iu-|
 d2 c2 d2 A2 |"^20" c4 B4 | A2 d3 c B2 | A2 d4 ^c2 | d8- | d4 z4 |"^25" z2 g4 f2 | g2 d2 f4 | %26
w: * va pu- sil-|\-la- ni-|mes, pu- * sil-|la- * ni-|mes,||iu- va|pu- sil- la-|
 e4 d2 B2 | A2 d4 ^c2 | d4 z4 |"^30" z4 z2 e2 | f6 d2 | c2 d2 A4 | f4 e2 d2- | d2 c2 d3 c | %34
w: ni- mes, pu-|sil- la- ni-|mes,|re-|fo- ve|fle- bi- les,|fle- * *||
"^35" B2 c4 B2 | c2 B2 B4- | B2 B2 A2 G2 | A4 F4 | z2 A4 d2- |"^40" d2 d2 e2 d2 | c4 f3 e | %41
w: \- * bi-|les, re- fo-|* ve fle- bi-|\-les, *|o- ra|* pro po *||
 dcBA G2 B2 | A4 z2 A2- | A2 d4 d2 |"^45" e2 d2 c4 | f3 e dc B2- | BcdB c4 | A3 B cd e2- | %48
w: * * * * * pu-|~lo, o-|* ra pro|po * *||* * pu * lo,|po- * * * *|
 ed d4 ^c2 |"^50" d4 z2 d2- | d2 e2 f3 e | dc d4 f2 | e2 d4 ^c2 | d4 z2 d2- |"^55" d2 d2 g4 | %55
w: * * * pu-|\-lo, in-|* ter- ve- *|* * ni pro|cle * *|ro, in-|\- ter- ce-|
 f3 e d2 c2 | B4 A4 | d6 d2 | g4 f3 e |"^60" d2 c2 B4 | A4 z2 c2 | B2 A2 G4 | F2 D2 E2 F2 | %63
w: * de pro de-|vo- ~to,|in- ter-|ce- * de|pro de- vo-|~to, pro|de- vo- *|to fe- mi- ne-|
 G2 A2 D2 A2- |"^65" A2 B2 G2 A2- | AG G4 ^F2 | G8 | B6 B2 | B4 B4 |"^70" A4 c4 | d2 e2 f4 | e8 | %72
w: o se- xu, fe-|* mi- ne- o|* * se- *|~xu.|Sen- ti-|ant om-|nes tu-|um iu- va-||
 d8 | z2 G4 d2- |"^75" d2 c2 d2 B2 | A2 f4 e2- | ed d4 ^c2 | d8- | d8 |"^80" z2 d2 e2 g2 | %80
w: men,|qui- cum-|* que ce- le-|\-brant, ce- le||brant||tu- am sanc-|
 f3 e d2 d2 | c2 B2 A2 G2 | d4 z2 d2 | e2 g2 f2 e2 |"^85" d2 f2 e2 d2- | d2 c2 d4- | d4 z2 G2 | %87
w: tam com- me- mo-|\-ra- ti- o- *|nem, tu-|am sanc- tam com-|me- mo- ra- ti-|* o- nem,|* tu-|
 A2 c2 B2 A2 | G2 B2 A2 G2- |"^90" G2 F2 G2 A2- | AG G4 ^F2 | G8 |] %92
w: am sanc- tam com-|me- mo- ra- ti-|* * * o||~nem.|
V:2
 G8 | F4 G4 | E4 D2 B,2- | B,2 G,2 A,4 | B,4 G,2 G2 | A3 G F2 G2 | E4 D2 A2- | A2 c2 B2 A2- | %8
w: Sanc-|ta Ma-|ri- a, *||* * suc-|cur- re mi- *|se- ris, suc-|* cur- re mi-|
w: ||* * Sanc-|* ta Ma-|ri- a, *||||
 A2 G2 A4- | A4 z2 D2 | E2 G4 F2- | FE D4 C2 | D4 z2 D2- | D2 F2 E2 D2- | D2 C2 D4- | D2 B,2 A,4 | %16
w: * se- ris,|* suc-|cur- re mi|* * * se-|~ris, suc-|* cur- re mi|||
w: |||||||* * se-|
 G,4 z4 | z2 G2 B2 A2- | A2 A2 F2 F2 | E4 z2 G2- | G2 F2 G2 D2 | F4 E4 | D2 B,4 A,2 | B,4 A,4 | %24
w: |iu- va pu-|* sil- la- ni-|\-mes, iu-|* va pu- sil-|la- ni-|mes, * *||
w: ~ris,||||||* pu- sil-|la- ni-|
 G,4 z4 | z2 G4 F2 | G6 D2 | F4 E4 | D4 z2 A2- | A2 B4 G2 | F6 G2 | E2 D3 EFG | A2 F2 G2 F2 | %33
w: |iu- va|pu- sil-|la- ni-|mes, re-|* fo- ve|fle- bi-|\-les, fle * * *||
w: mes,|||||||||
 E4 D2 D2 | F6 D2 | C2 D2 G,A,B,C | DCDE F2 E2 | D8- | D4 z2 D2- | D2 G4 G2 | A2 A2 F3 G | %41
w: bi- les, re-|fo- ve|fle * * * * *|* * * * * bi-|\-les,|* o-|* ra pro|po- pu- lo, *|
w: ||||||||
 A2 B3 AGF | E2 A3 G F2 | E2 D4 G2- | G2 G2 A2 A2 | F3 G A2 G2 | B4 A4 | z2 A4 B2- | B2 G2 A3 G | %49
w: ||* o- ra|* pro po- pu-|lo, * * *||o- ra|* pro po *|
w: ||||||||
 F2 G2 D4 | z2 G2 A4 | B3 A G2 F2 | G3 F E4 | D8 | G6 G2 | A2 F2 G3 F/E/ | DCDE F2 D2 | %57
w: * pu- ~lo,|in- ter-|ve- * * ni|pro * cle-|ro,|in- ter-|\-ce- de pro * *|* * * * * de-|
w: ||||||||
 G,3 A, B,C D2- | D2 C2 D4- | D2 B,3 CDE | F2 D4 C2 | D4 z2 G,2 | A,2 B,2 C2 D2 | G,2 C2 G2 E2 | %64
w: |* * to,|* pro * * *|* de- vo-|\-to *||* fe- mi- ne-|
w: vo * * * *||||* fe-|mi- ne- o se-|xu, * * *|
 F2 D4 D2 | _E2 E2 D4 | D4 G4- | G2 G2 G4 | G4 F4- | F4 A4 | A2 G2 F3 G | A4 G4- | G4 z2 D2- | %73
w: ~o, fe- mi-|ne- o se-|~xu. Sen-|* ti- ant|om- nes|* tu-|um iu- va- *|* men,|* qui-|
w: |||||||||
 D2 G4 F2 | G2 E2 D3 E | FG A3 B c2 | A2 G2 A4- | A4 D4 | z2 D4 F2 | E2 D3 ^C/=B,/ C2 | %80
w: * cum- que-|ce * * *||* * le-|* brant,|qui- cum-|que ce * * *|
w: |||||||
 A,2 F3 EFG | A2 D2 z4 | z8 | G4 A2 c2 | B2 A2 G2 B2 | A2 G4 F2 | z2 D2 E2 G2 | F2 E2 D2 F2 | %88
w: * le * * *|* brant||tu- am com-|me- mo- ra- ti-|o- * nem,|tu- am sanc-|tam com- me- mo-|
w: ||||||||
 E2 D3 C C2 | D6 F2- | FE C2 D4 | D8 |] %92
w: ra * * *|ti- o||~nem.|
w: ||||
V:3
 z8 | z8 | z8 | z4 d4- | d4 c4 | d4 B4 | A4 d3 e | f2 g4 f2 | d4 e4 | d4 f4 | e2 d2 c3 B | %11
w: |||Sanc-|* ta|Ma- ri-|a, suc- *|* cur- re|mi- se-|ris, suc-|cur- re mi *|
 A2 B2 G4 | A4 G3 A | B2 c4 B2 | G4 A4 | G4 z4 | z2 g4 f2 | g2 d2 f4 | e4 d2 d2- | d2 c2 d4- | %20
w: |||se- *|ris,|iu- va|pu- sil- la-|ni- mes, iu-|* va pu-|
 d2 A2 B3 c | d4 A4 | B3 c de f2 | d2 f3 e d2- | d2 ^c2 d4 | B3 A/G/ A2 B2 | c2 GA BABc | d4 A4 | %28
w: * sil- la *|||||\-ni * * * *||mes, *|
 z2 d4 f2- | f2 d4 c2 | d6 B2 | A2 d2 f4- | f2 d2 c2 d2 | A2 c2 G2 d2- | d2 c2 d4 | z2 d2 d4- | %36
w: re- fo-|* * ve|fle- bi-|\-les, re- fo-|* ve fle *||* bi- les,|re- fo-|
 d2 B2 c2 B2 | A8- | A8 | z8 | z2 A4 d2- | d2 d2 e2 d2 | c4 f3 e/d/ | c2 d2 G4 | z4 z2 A2- | %45
w: * ve fle- bi-|\-les,|||o- ra|* pro po- pu-|lo, * * *||o-|
 A2 d4 d2 | e2 d2 c4 | f4 e2 g2- | gfed e4 | d3 c BA d2- | d2 ^c2 d4 | z2 g4 a2 | b4 a3 g | %53
w: * ra pro|po- pu- ~lo,|o- ra pro|* * * * po-||* pu- lo,|in- ter-|ve- * *|
 fe d4 f2 | e2 d4 c2 | d2 d4 d2 | g4 f3 e | d2 c2 B2 A2- | A2 G2 A2 d2- | d2 d2 g4 | f3 e d2 e2- | %61
w: * * ni pro|cle- * *|\-ro, in- ter-|ce- * *|de pro de- vo-|* * to, in-|* ter- ce-|* de pro de-|
 ed d4 c2 | d4 A4 | z2 A2 B2 c2 | d3 c B2 A2 | B2 c2 A4 | G8 | d6 d2 | d4 d4 | c4 c3 B | %70
w: * * vo- *|* ~to|fe- mi- ne-|o * * se||~xu.|Sen- ti-|ant om-|nes tu- *|
 A2 c3 BBA | c8 | z2 G4 d2- | d2 c4 d2 | B2 A2 z4 | z2 d4 g2 | f2 g2 e4 | d6 A2- | A2 B4 A2 | %79
w: um iu- * va *|men,|qui- cum-|* que ce-|le- brant,|qui- cum-|que ce- le-|brant, qui-|* cum- que|
 B4 G4 | d4 z2 d2 | e2 g2 f2 e2 | d3 c B2 d2- | d2 c2 d2 G2 | z2 d2 e2 g2 | f2 e2 d3 c | B2 A2 G4 | %87
w: ce- le-|brant tu-|\-am sanc- tam com-|me- mo- ra- ti-|* * o- nem,|tu- am sanc-|tam com- me- mo-|\-ra- ti- o-|
 d2 G4 F2 | G2 G2 A2 c2 | B2 A2 G2 c2- | cB G2 A4 | G8 |] %92
w: |nem, tu- am sanc-|tam com- me- mo-|* ra- ti- o-|~nem.|
V:4
 z8 | z8 | z4 G,4- | G,4 F,4 | G,4 E,4 | D,4 z4 | z2 A,2 B,2 D2- | D2 C2 D4 | B,4 A,4 | z4 D4 | %10
w: ||Sanc-|* ta|Ma- ri-|a,|suc- cur- re|* mi- se-|* ris,|suc-|
 C2 B,2 A,3 G, | F,2 G,2 E,4 | D,2 D,2 E,2 G,2- | G,2 F,2 G,4 | E,4 D,4 | z2 D4 C2 | D2 B,2 C2 D2 | %17
w: cur- re mi- *|* * se-|ris, suc- cur- re|* mi- se-|* ~ris,|iu- va|pu- sil- la- ni-|
 G,A,B,C D4 | A,4 D,E,F,G, | A,4 G,3 F, | D,4 G,4 | z8 | %22
w: mes, * * * *|pu- sil * * *|\-la- ni- *|mes, *||
"^© Michael Wendel 2005\nThis edition may be freely duplicated, distributed, performed or recorded for non-profit performance or use.\n" z2 G,4 F,2 | %23
w: iu- va|
 G,2 D,2 F,4 | E,4 D,4 | G,3 F,/E,/ D,4 | C,D,E,F, G,3 F, | D,4 z2 A,2 | B,6 A,2 | F,2 G,3 F, E,2 | %30
w: pu- sil- la-|ni- *|||mes, re-|fo- ve|fle- bi * *|
 D,4 z4 | z8 | z8 | z2 A,2 B,4- | B,2 A,2 F,2 G,2 | C,2 G,2 B,4- | B,2 G,2 F,2 G,2 | D,8- | D,8 | %39
w: les,|||re- fo-|* ve fle- bi-|les, re- fo-|* ve fle- bi-|\-les,||
 z8 | z4 z2 D,2- | D,2 G,4 G,2 | A,2 A,2 F,3 G, | A,2 B,4 G,2 | C2 B,2 A,4 | D,2 D,4 G,2- | %46
w: |o-|* ra pro|po- pu- lo, *|* * pro|po- * pu-|lo, o- ra|
 G,2 G,2 A,2 A,2 | F,3 G, A,2 G,2 | B,4 A,2 A,2 | B,2 G,4 F,2 | G,2 E,2 D,4 | G,4 z4 | G,4 A,4 | %53
w: * pro po- pu-|lo * * *|o- ra pro|po * *|pu- * lo,||in- ter-|
 B,3 A, G,2 F,2 | G,3 F, E,4 | D,4 G,4- | G,2 G,2 D3 C | B,2 A,2 G,2 F,2 | E,4 D,4 | G,6 G,2 | %60
w: ve- * * ni|pro * cle-|\-ro, in-|* ter- ce- *|* de pro de-|vo- to,|in- ter|
 D3 C B,2 A,2 | G,2 F,2 E,4 | D,4 z2 D,2 | E,2 F,2 G,2 A,2 | D,2 G,4 F,2 | _E,2 C,2 D,4 | G,4 z4 | %67
w: ce- * * de|pro de- vo-|to fe-|mi- ne- o se-|||~xu.|
 G,6 G,2 | G,4 B,4 | F,6 F,2 | F,2 E,2 D,4 | C,4 z2 C,2 | G,6 F,2 | G,2 E,4 D,2 | z4 G,4 | D6 C2 | %76
w: Sen- ti-|ant om-|nes tu-|um iu- va-|men, qui-|cum- que|ce- le- brant,|qui-|\-cum- que|
 D2 B,2 A,4 | D,4 z2 D,2- | D,2 G,4 F,2 | G,4 E,4 | D,2 D3 C B,2 | A,2 G,2 A,2 C2 | %82
w: ce- * le-|brant, qui-|* cum- que|ce- *|le * * *|\-brant tu- am sanc-|
 B,3 A, G,2 F,2 | E,4 D,2 C,2 | D,4 z2 G,2 | A,2 C2 B,3 A, | G,2 F,2 E,4 | D,2 C,2 D,2 D,2 | %88
w: tam com- me- mo-|ra- ti- o-|nem, tu-|am sanc- tam com-|\-me- mo- ra-|ti- o- nem, tu-|
 E,2 G,2 F,2 E,2 | D,4 G,2 F,2- | F,G, E,2 D,4 | G,8 |] %92
w: am sanc- tam com-|me- mo- ra-|* * ti- o-|~nem.|

